!!!OTL: Malbrough (2-17), S. 39
!!!id: K1109V
**kern
*clefG2
*k[]
*G:
{8b
=1
8b
8b
16g
8b
8a
8b
16g
=2
4cc
8b
16b
16b
=3
8a
16a
16a
8a
16g
16a
=4
8b
8g
8b}
=5
{8b
=6
8b
8b
16g
8b
8a
8b
16g
=7
4cc
8b
8dd
=8
8b
8g
8a
8a
=9
4g}
8r
=10
{8b
=11
8dd
8dd
8ee
8ee
=12
4dd
8r
8b
=13
8dd
8dd
8ee
8ee
=14
4dd}
8r
==
*-
!!!minrhy: 16
!!!meters: 2/4 ]  ZZ[3
!!!cut: Malbrough (2-17), S. 39
!!!reg: Luxemburg
!!!trd: KINTZELE, Guillaume: An der Ucht, Bd. 2, Luxemburg 1927
!!!rhy1: X_  X_X_(X_X_X_)  X__X_XX  X_XXX_XX  X_X_X_
!!!rhy2: X_  X_X_(X_X_X_)  X__X_X_  X_X_X_X_  X__0_
!!!key: K1109V 16  G 2/4 ]  ZZ[3
!!!mod: SECHSTONSKALA DUR ?]  AMBITUS[6
!!!kad: 315
!!!akz: 3423_3431_5555_
!!!fot: 'a__aw_b__
!!!for: 'a__b__c__
!!!fok: 'V__^d_~a_
!! PHRAS[AUFTAKTIG]
!!!fkt: historisches, Kriegs-, Soldatenlied
!!!bem: in der Quelle mit einer 2. Stimme versehen, französische Variante von K1108
!! KINTZELE
!! PR[13] 2K[6] 2G[11] 3K[0] 3G[0] 4A[5] 4Ü[0] 5A[0] 6K[0] 6G[2]
!! 7K[0] 7G[0] 8A[3] MEHR[2] SI[29] ABS[63] SR[17] SP[11]
!! ST[16] 2k[16] 2g[33] 3k[0] 3g[0] 4d[5] 4ü[0] 5d[5] 6k[0] 6g[0]
!! 7k[0] 7g[0] 8d[0] mehr[0] si[59] dm[-30] sr[49] sp[10]
!! 1F[10] 2F[68] 3F[4] 4F[8] LF[0] 2P[7] 3P[3] 4P[0] TRI[0] DF[6] AB[72]
!! TF[0] U3K[0] U3[0] U4[0] U4Ü[0] U5[0] U6K[0] U6[0] U7K[0] U7[0]
!! N1[6] N2K[0] N2[3] N3K[6] N3[0] N4[9] N4Ü[0] N5[22] N6K[5] N6[3]
!!!n7k: 13] N7[0] O1[20] O2K[0] O2[6] O3K[6] O3[0] HÖ[0
